/* XPM */
static char *xpm_0[] = {
"32 32 5 1 ",
"  c None",
". c #1F1C1E",
"X c #545468",
"o c #A0A08A",
"O c #EAF0ED",
"                                ",
"               ..               ",
"              .OO.              ",
"     .....  ..OO.. .....        ",
"     ..OOO..oo..oo.OOO..  X X   ",
"     ..OOoooooooooooOO..  X X   ",
"      ..o.ooooooooo.o.. XXX XXX ",
"        .ooooooooooo.           ",
"        .ooo.ooo.ooo.   XXX XXX ",
"       .oooo.ooo.oooo.    X X   ",
"       .o..OOO.OOO..o. ...X X   ",
"       ..OOOOOOOOOOO...OOO.     ",
"       .OOOOOXXXOOOOO.ooOO.     ",
"        .OOOXXXXXOOO.Ooooo.     ",
"        ..OOXXXXXOO...Oooo.     ",
"    ....oo...XXX...oo.....      ",
"  ..oooooooOOOOOOOooooooo..     ",
" .Oooooo.ooOOOOOOOoo.oooooO.    ",
" .OOooo.oooOOOOOOOooo.oooOO.    ",
" .OOooo.ooOOOOOOOOOoo.oooOO.    ",
"  .....ooOOOOO.OOOOOoo.....     ",
"      .o.............o.o.       ",
"      ..OOOOOOOOOOOOO..o.       ",
"      .OOOOOOOOOOOOOOO.o.       ",
"     ..OOOOOOOOOOOOOOO..        ",
"    .oo.OOOOOOOOOOOOO.oo.       ",
"    .oo.OOOOOOXOOOOOO.oo.       ",
"   .Oooo.OOOOOXOOOOO.oooO.      ",
"   .OOoo.OOOOOXOOOOO.ooOO.      ",
"   .OOooo.OOOOXOOOO.oooOO.      ",
"    .OOo. ......... .oOO.       ",
"     ...             ...        "
};
